X:1
T: Look Both Ways
N:
C:Tune "Jump at the Sun" by Kirkpatrick
S:
A:
O:
R:
M:6/8
K:Em
I:speed 150
%W: A1
% voice 1 (1 lines, 40 notes)
K:Em
M:6/8
L:1/16
E2 G2 B2 ^A4 B2 E2 G2 B2 ^A4 B2 e2 B2 B2 e2 B2 B2 B2 A2 G2 F6 |E2 G2 B2 ^A4 B2 E2 G2 B2 ^A4 B2 e2 B2 B2 c2 B2 A2 G2 A2 F2 E6 |
%W: A2
% voice 1 (1 lines, 41 notes)
E2 G2 B2 ^A4 B2 E2 G2 B2 ^A4 B2 e2 B2 B2 e2 B2 B2 B2 A2 G2 F6 |E2 G2 B2 ^A4 B2 E2 G2 B2 ^A4 B2 e2 B2 B2 c2 B2 A2 G2 A2 F2 E4 B2 |
%W: B1
% voice 1 (1 lines, 46 notes)
e2 B2 B2 g2 f2 e2 f2 B2 B2 a2 g2 f2 g2 f2 e2 g2 f2 e2 f2 ^d2 B2 c4 B2 |e2 B2 B2 g2 f2 e2 f2 B2 B2 a2 g2 f2 e2 B2 B2 c2 B2 A2 G2 A2 F2 E4 B2 |
%W: B2
% voice 1 (1 lines, 45 notes)
e2 B2 B2 g2 f2 e2 f2 B2 B2 a2 g2 f2 g2 f2 e2 g2 f2 e2 f2 ^d2 B2 c4 B2 |e2 B2 B2 g2 f2 e2 f2 B2 B2 a2 g2 f2 e2 B2 B2 c2 B2 A2 G2 A2 F2 E4 ||
